SVG_Azure_All/App Service Management.svg

<?xml version="1.0" encoding="UTF-8" standalone="no"?>
<!-- Generated by Microsoft Visio, SVG Export App Service Management.svg Page-1 -->

<svg
   xmlns:dc="http://purl.org/dc/elements/1.1/"
   xmlns:cc="http://creativecommons.org/ns#"
   xmlns:rdf="http://www.w3.org/1999/02/22-rdf-syntax-ns#"
   xmlns:svg="http://www.w3.org/2000/svg"
   xmlns="http://www.w3.org/2000/svg"
   xmlns:sodipodi="http://sodipodi.sourceforge.net/DTD/sodipodi-0.dtd"
   xmlns:inkscape="http://www.inkscape.org/namespaces/inkscape"
   width="0.66930187in"
   height="0.78735679in"
   viewBox="0 0 48.189619 56.69"
   xml:space="preserve"
   class="st5"
   version="1.1"
   id="svg40"
   sodipodi:docname="App Service Management.svg"
   style="font-size:12px;overflow:visible;color-interpolation-filters:sRGB;fill:none;fill-rule:evenodd;stroke-linecap:square;stroke-miterlimit:3"
   inkscape:version="0.92.5 (2060ec1f9f, 2020-04-08)"><metadata
   id="metadata44"><rdf:RDF><cc:Work
       rdf:about=""><dc:format>image/svg+xml</dc:format><dc:type
         rdf:resource="http://purl.org/dc/dcmitype/StillImage" /></cc:Work></rdf:RDF></metadata><sodipodi:namedview
   pagecolor="#ffffff"
   bordercolor="#666666"
   borderopacity="1"
   objecttolerance="10"
   gridtolerance="10"
   guidetolerance="10"
   inkscape:pageopacity="0"
   inkscape:pageshadow="2"
   inkscape:window-width="640"
   inkscape:window-height="480"
   id="namedview42"
   showgrid="false"
   inkscape:zoom="1.4193119"
   inkscape:cx="32.125824"
   inkscape:cy="37.786193"
   inkscape:window-x="0"
   inkscape:window-y="0"
   inkscape:window-maximized="0"
   inkscape:current-layer="svg40" />
	<style
   type="text/css"
   id="style2">
	<![CDATA[
		.st1 {fill:url(#grad0-6);stroke:none;stroke-linecap:butt;stroke-width:34}
		.st2 {fill:#0078d4;stroke:none;stroke-linecap:butt;stroke-width:34}
		.st3 {fill:#ffffff;fill-opacity:0.9;stroke:none;stroke-linecap:butt;stroke-width:34}
		.st4 {fill:#ffffff;fill-opacity:0.5;stroke:none;stroke-linecap:butt;stroke-width:34}
		.st5 {fill:none;fill-rule:evenodd;font-size:12px;overflow:visible;stroke-linecap:square;stroke-miterlimit:3}
	]]>
	</style>

	<defs
   id="Patterns_And_Gradients">
		<linearGradient
   id="grad0-6"
   x1="0"
   y1="62.713619"
   x2="52.267496"
   y2="62.713619"
   gradientTransform="scale(0.92198793,1.0846129)"
   gradientUnits="userSpaceOnUse">
			<stop
   offset="0"
   stop-color="#0078d4"
   stop-opacity="1"
   id="stop4" />
			<stop
   offset="1"
   stop-color="#83b9f9"
   stop-opacity="1"
   id="stop6" />
		</linearGradient>
	</defs>
	<g
   id="g38"
   transform="translate(-34.000457,-34.0043)">
		<title
   id="title10">Page-1</title>
		<g
   id="group9978-1"
   transform="translate(34,-34.0157)">
			<title
   id="title12">App Service Management</title>
			<g
   id="group9979-2">
				<title
   id="title14">Sheet.9979</title>
				<g
   id="shape9980-3">
					<title
   id="title16">Sheet.9980</title>
					<path
   d="M 0.03,82.19 24.11,68.02 48.19,82.19 v 28.35 L 24.11,124.71 0,110.54 V 82.28 Z"
   class="st1"
   id="path18"
   inkscape:connector-curvature="0"
   style="fill:url(#grad0-6);stroke:none;stroke-width:34;stroke-linecap:butt" />
				</g>
				<g
   id="shape9981-7"
   transform="translate(0.0308904,-0.0440945)">
					<title
   id="title21">Sheet.9981</title>
					<path
   d="m 0.03,82.28 24.03,14.09 v 28.34 L 0,110.57 V 82.38 Z"
   class="st2"
   id="path23"
   inkscape:connector-curvature="0"
   style="fill:#0078d4;stroke:none;stroke-width:34;stroke-linecap:butt" />
				</g>
				<g
   id="shape9982-9"
   transform="translate(6.68468,-11.178)">
					<title
   id="title26">Sheet.9982</title>
					<path
   d="M 5.55,110.15 A 0.163719,0.166929 -180 0 0 5.380103,110.1342 L 0.15,113.16 c -0.15,0.09 -0.04,0.46 0.17,0.58 l 2.78,1.35 0.17,0.1 a 0.534403,0.544882 0 0 1 0.240945,0.42835 L 3.49,122.03 a 1.51054,1.54016 -180 0 0 0.67,1.2 l 2.07,1.26 c 0.38,0.22 0.69,0.05 0.69,-0.4 l 0.02,-6.43 c 0,-0.16 0.11,-0.22 0.25,-0.14 l 0.17,0.1 3.24,2.02 c 0.21,0.13 0.32,-0.12 0.17,-0.38 l -5.05,-8.92 a 0.500424,0.510236 -180 0 0 -0.169897,-0.18268 z"
   class="st3"
   id="path28"
   inkscape:connector-curvature="0"
   style="fill:#ffffff;fill-opacity:0.9;stroke:none;stroke-width:34;stroke-linecap:butt" />
				</g>
				<g
   id="shape9983-11"
   transform="translate(8.74506,-28.1102)">
					<title
   id="title31">Sheet.9983</title>
					<path
   d="m 0,115.44 23.48,-14.54 7.36,4.32 -23.48,14.56 v 4.6 a 0.336705,0.343307 0 0 1 -0.596184,0.22047 L 3.65,120.83 A 0.342883,0.349606 -180 0 0 3.300939,120.71661 L 0.41,121.34 a 0.336705,0.343307 0 0 1 -0.407753,-0.33386 z"
   class="st4"
   id="path33"
   inkscape:connector-curvature="0"
   style="fill:#ffffff;fill-opacity:0.5;stroke:none;stroke-width:34;stroke-linecap:butt" />
				</g>
			</g>
		</g>
	</g>
</svg>

<?xml version="1.0" encoding="UTF-8" standalone="no"?>
<!DOCTYPE svg PUBLIC "-//W3C//DTD SVG 1.1//EN" "http://www.w3.org/Graphics/SVG/1.1/DTD/svg11.dtd">
<!-- Generated by Microsoft Visio, SVG Export App Service Management.svg Page-1 -->
<svg xmlns="http://www.w3.org/2000/svg" xmlns:xlink="http://www.w3.org/1999/xlink" xmlns:ev="http://www.w3.org/2001/xml-events"
		width="1.61374in" height="1.73206in" viewBox="0 0 116.189 124.709" xml:space="preserve" color-interpolation-filters="sRGB"
		class="st5">
	<style type="text/css">
	<![CDATA[
		.st1 {fill:url(#grad0-6);stroke:none;stroke-linecap:butt;stroke-width:34}
		.st2 {fill:#0078d4;stroke:none;stroke-linecap:butt;stroke-width:34}
		.st3 {fill:#ffffff;fill-opacity:0.9;stroke:none;stroke-linecap:butt;stroke-width:34}
		.st4 {fill:#ffffff;fill-opacity:0.5;stroke:none;stroke-linecap:butt;stroke-width:34}
		.st5 {fill:none;fill-rule:evenodd;font-size:12px;overflow:visible;stroke-linecap:square;stroke-miterlimit:3}
	]]>
	</style>

	<defs id="Patterns_And_Gradients">
		<linearGradient id="grad0-6" x1="0" y1="0" x2="1" y2="0" gradientTransform="rotate(-90 0.5 0.5)">
			<stop offset="0" stop-color="#0078d4" stop-opacity="1"/>
			<stop offset="1" stop-color="#83b9f9" stop-opacity="1"/>
		</linearGradient>
	</defs>
	<g>
		<title>Page-1</title>
		<g id="group9773-1" transform="translate(34,-34.0157)">
			<title>App Service Management</title>
			<g id="group9774-2">
				<title>Sheet.9774</title>
				<g id="shape9775-3">
					<title>Sheet.9775</title>
					<path d="M0.03 82.19 L24.11 68.02 L48.19 82.19 L48.19 110.54 L24.11 124.71 L0 110.54 L0 82.28 L0.03 82.19 Z"
							class="st1"/>
				</g>
				<g id="shape9776-7" transform="translate(0.0308904,-0.0440945)">
					<title>Sheet.9776</title>
					<path d="M0.03 82.28 L24.06 96.37 L24.06 124.71 L0 110.57 L0 82.38 L0.03 82.28 Z" class="st2"/>
				</g>
				<g id="shape9777-9" transform="translate(6.68468,-11.178)">
					<title>Sheet.9777</title>
					<path d="M5.55 110.15 a0.163719 0.166929 -180 0 0 -0.169897 -0.015748 L0.15 113.16 C0 113.25 0.11 113.62 0.32
								 113.74 L3.1 115.09 L3.27 115.19 a0.534403 0.544882 0 0 1 0.240945 0.428346 L3.49 122.03 A1.51054
								 1.54016 -180 0 0 4.16 123.23 L6.23 124.49 C6.61 124.71 6.92 124.54 6.92 124.09 L6.94 117.66 C6.94
								 117.5 7.05 117.44 7.19 117.52 L7.36 117.62 L10.6 119.64 C10.81 119.77 10.92 119.52 10.77 119.26
								 L5.72 110.34 a0.500424 0.510236 -180 0 0 -0.169897 -0.182677 Z" class="st3"/>
				</g>
				<g id="shape9778-11" transform="translate(8.74506,-28.1102)">
					<title>Sheet.9778</title>
					<path d="M0 115.44 L23.48 100.9 L30.84 105.22 L7.36 119.78 L7.36 124.38 a0.336705 0.343307 0 0 1 -0.596184 0.220472
								 L3.65 120.83 a0.342883 0.349606 -180 0 0 -0.349061 -0.113386 L0.41 121.34 a0.336705 0.343307 0 0
								 1 -0.407753 -0.333858 L0 115.44 Z" class="st4"/>
				</g>
			</g>
		</g>
	</g>
</svg>
